X: 30363
T: FANCY DANCE
C:
%R: reel, hornpipe
B: Elias Howe "The Musician's Companion" Part 3 1844 p.36 #3
S: http://imslp.org/wiki/The_Musician's_Companion_(Howe,_Elias)
S: https://archive.org/stream/firstthirdpartof03howe/#page/66/mode/1up
Z: 2016 John Chambers <jc:trillian.mit.edu>
N: Added missing bar line at the start of strain 2.
N: Added "pickup" rest to strain 4, to fix the rhythm.
M: 4/4
L: 1/8
K: G
% - - - - - - - - - - - - - - - - - - - - - - - - -
D2 |\
G2B2 {G}BdBG | FGAB c>Bc>A | g>fg>d e>ge>c | B>dA>G F>AF>D |\
G2B2 BdBG | FGAB c>Bc>A | g>fg>d e>ge>c | B>dA>F G2 :|
|: G>A |\
B2B>G B2B>G | B>de>f g>dc>B | A2A>F A2A>F | A>BA>F G>FE>D |\
B2B>G B2B>G | B>de>f g>dc>B | A2A>F A2A>F | A>cA>F G2 :|
|: d>c |\
B>cd>e d2d2 | g3f e>dc>B | c2c2 c2c2 | d2d>B c>BA>G |\
B>cd>e d2d2 | g2g>f e>dc>B | c>de>f g>bg>d | B>dB>F G2 :|
|: z2 |\
g2g>d g2g>d | g>fg>a b2b>a | g>ag>d g>bg>d | c>Bc>d e>dc>B |\
g>gg>d g>gg>d | g>fg>a b2b>a | g>bg>d g>bg>d | B>AG>F G2 :|
% - - - - - - - - - - - - - - - - - - - - - - - - -
